!!!!SEGMENT: 018-1-BH.krn
!!!COM: Chopin, Fryderyk
!!!OTL: GRANDE VALSE BRILLANTE.
!!!OPS: Op. 18
!!!PTL: GRANDE VALSE brillante Pour le Pianoforte
!!!PPR: Breitkopf & Härtel
!!!PPP: Leipzig
!!!NIFC-rismID: 1001014314
!!!NIFC-shelfmark: PL-Wbfc 4047/n
!!!OMD: Vivo.
!!!system-decoration: {(s1,s2)}
**kern	**kern	**dynam
*part1	*part1	*part1
*staff2	*staff1	*
*	*I"VALSE. 	*
*clefF4	*clefG2	*
*k[b-e-a-]	*k[b-e-a-]	*
*E-:	*E-:	*
*M3/4	*M3/4	*
*>[A,B,B1,B,B2,C,D,D1,D,D2,E,F,F1,F,F2,G,G1,G,G2,H]	*>[A,B,B1,B,B2,C,D,D1,D,D2,E,F,F1,F,F2,G,G1,G,G2,H]	*
=1	=1	=1
*>A	*>A	*
2.rF	2b-^<	.
.	8b-'>L	.
.	8b-'>J	.
=2	=2	=2
2.rF	2b-^<	.
.	8b-'>L	.
.	8b-'>J	.
=3	=3	=3
2.rF	4b-^<	.
.	8b-'>L	.
.	8b-'>J	.
.	4b-^<	.
=4	=4	=4
2.rF	8b-'>L	.
.	8b-'>J	.
.	4b-^<	.
.	8b-'>L	.
.	8b-'>J	.
=5!|:	=5!|:	=5!|:
*>B	*>B	*
*ped	*	*
4BB-'>\	4b-'>	.
4a- 4f 4B-	(>8ddL	<
.	8ee-J	.
*Xped	*	*
4a- 4f 4B-	4ff 4dd	[
=6	=6	=6
*ped	*	*
4E-'>	4b-'>)	<
4g 4e- 4B-	(>8ee-L	.
.	8ffJ	.
*Xped	*	*
4g 4e- 4B-	4gg 4ee-	[
=7	=7	=7
*ped	*	*
4D'>	4b-'>)	<
4a- 4f 4B-	(>8ffL	.
.	8ggJ	.
*Xped	*	*
4a- 4f 4B-	4aa- 4ff)	[
!!LO:LB:g=original
=8	=8	=8
*ped	*	*
!	!	!LO:DY:rj
4E-	2bb-^^> 2gg 2dd-X^<	fz
4g 4d-X 4B-	.	.
*Xped	*	*
.	.	.
4En	8bb-L 8gg 8dd-	.
.	8bb-J 8gg 8dd-	.
=9	=9	=9
*	*^	*
!	!	!	!LO:DY:rj
4F	(>4bb-	2gg 2dd-X^<	p
4f'> 4A-'>	8cccL	.	.
.	8bb-J	.	.
4AA-'<	4aa-)	4cc	.
=10	=10	=10	=10
*ped	*	*	*
4BB-'>\	(>4aa-	2cc-X^<	.
4e- 4G	8bb-L	.	.
.	8aa-J	.	.
*Xped	*	*	*
4e- 4G	4gg)	4b-	.
=11	=11	=11	=11
*ped	*	*	*
4BB-\	(>4gg	2b-^<	.
4d 4F	8aa-L	.	.
.	8ggJ	.	.
*Xped	*	*	*
4d 4B-	4ff)	4a-	.
=12	=12	=12	=12
*^	*	*	*
4rd	2.E-	(>4ff	2a-^<	.
4e- 4B-	.	8ggL	.	.
.	.	8ffJ	.	.
4e- 4B-	.	4ee-)	4g	.
*v	*v	*	*	*
*	*v	*v	*
=13	=13	=13
*ped	*	*
!	!	!LO:DY:rj
4BB-\	4b-'>	f
4a- 4f 4B-	(>8ddL	<
.	8ee-J	.
*Xped	*	*
4a- 4f 4B-	4ff 4dd	[
=14	=14	=14
4E-	4b-'>)	.
4g 4e- 4B-	(>8ee-L	<
.	8ffJ	.
4g 4e- 4B-	4gg 4ee-	[
=15	=15	=15
4D	4b-'>)	.
4a- 4f 4B-	(>8ffL	<
.	8ggJ	.
4a- 4f 4B-	4aa- 4ff	[
!!LO:LB:g=original
=16	=16	=16
*	*^	*
!	!	!	!LO:DY:rj
4E-'>	4.bb-^< 4.gg 4.dd-^^>X)	4.ryy	fz
4g 4d-X 4B-	.	.	]
.	8ryy	(>8bb-L 8gg	.
4En	4dd-^<	8dd-	.
.	.	8bb-J 8gg)	.
*	*v	*v	*
=17	=17	=17
!	!LO:N:vis=2	!
4F'>	(>8dd-XL^<	.
.	8bb-	.
4f'> 4A-'>	8ccc	.
.	8bb-J	.
4AA-'<	4aa-'> 4cc'>)	.
=18	=18	=18
!	!LO:N:vis=2	!
4BB-	(>8cc-XL^<	.
.	8aa-	.
4e- 4G	8bb-	.
.	8aa-J	.
4e- 4G	4gg'> 4b-'>)	.
=19	=19	=19
!	!LO:N:vis=2	!
4BB-	(>8b-L^<	.
.	8gg	.
4d 4F	8aa-	.
.	8ggJ	.
4d [>4B-	4ff 4a-)	.
=20	=20	=20
!!LO:TX:a:B:t=1a.
*>B1	*>B1	*
4e- 4B-] 4E-	4ee-'> 4g	.
4r	8b-'>L	.
.	8b-'>	.
4r	8b-'>	.
.	8b-'>J	.
=21:|!	=21:|!	=21:|!
!!LO:TX:a:B:t=2a.
*>B2	*>B2	*
*^	*	*
4ryy	(>2E-	4ee-'> 4g	.
4e- 4G	.	8ee-'>L	.
.	.	8ee-'>	.
4d-X 4G)	4E-	8ee-'>	.
.	.	8ee-'>J	.
*v	*v	*	*
!!LO:LB:g=original
=22	=22	=22
*>C	*>C	*
*ped	*	*
!	!	!LO:DY:rj
4AA-	8ee-'>L	p
!	!LO:TX:b:Bi:t=leggieram.	!
.	8ee-'>	.
4c 4A- 4E-	8ee-'>	.
.	8ee-'>	.
4c 4A- 4E-	8ee-'>	.
.	8ee-'>J	.
=23	=23	=23
4AA-	(>8ffL\	.
.	8ee-	.
4c 4A- 4E-	8cc	.
.	8a-	.
4c 4A- 4E-	8e-	.
*Xped	*	*
.	8enJ)	.
=24	=24	=24
*ped	*	*
4AA-	8f'<L	.
.	8f'<	.
4Bn 4A- 4D	8f'<	.
.	8f'<	.
*Xped	*	*
4B 4A- 4D	8f'<	.
.	8f'<J	.
=25	=25	=25
*ped	*	*
4AA-	(>8e-L	.
.	8a-	.
4c 4A- 4E-	8cc	.
.	8ee-	.
*Xped	*	*
4c 4A- 4E-	8aa-	.
.	8eenJ)	.
=26	=26	=26
*ped	*	*
4D	8ff'>L	.
.	8ff'>	.
4f 4Bn 4A-	8ff'>	.
.	8ff'>	.
*Xped	*	*
4f 4B 4A-	8ff'>	.
.	8ff'>J	.
=27	=27	=27
*ped	*	*
!	!LO:TX:a:t=P:note-head-side tuplet number:problem	!
4E-	(>12ffL	.
.	12gg	.
.	12ffJ)	.
*clefG2	*	*
4a- 4e- 4c	(>8ee-L	<
.	8aa-J	.
4a- 4e- 4c	4ccc)	[
*clefF4	*	*
*Xped	*	*
!!LO:LB:g=original
=28	=28	=28
*ped	*	*
4E-	(>4fff^<	.
*clefG2	*	*
!LO:TX:b:t=P:błąd w druku? (4e-X zamiast 4d-):problem	!	!
4g 4e-X 4d	8eee-L	.
.	8ddd-XJ	.
*Xped	*	*
4g 4e- 4d	4gg)	.
=29	=29	=29
4A-	(>4bb-^<	.
4a- 4e- 4c	8aa-L	.
.	8ee-J	.
4a- 4e- 4c	4cc)	.
!LO:TX:b:t=P:problem:klucz basowy na kresce taktowej	!	!
*clefF4	*	*
=30	=30	=30
*ped	*	*
4AA-	8ee-'>L	.
.	8ee-'>	.
4c 4A- 4E-	8ee-'>	.
.	8ee-'>	.
4c 4A- 4E-	8ee-'>	.
.	8ee-'>J	.
=31	=31	=31
4AA-	(>8ffL\	.
.	8ee-	.
4c 4A- 4E-	8cc	.
.	8a-	.
4c 4A- 4E-	8e-	.
*Xped	*	*
.	8enJ)	.
=32	=32	=32
*ped	*	*
4AA-	8f'<L	.
.	8f'<	.
4Bn 4A- 4D	8f'<	.
.	8f'<	.
4B 4A- 4D	8f'<	.
*Xped	*	*
.	8f'<J	.
=33	=33	=33
*ped	*	*
4AA-	(>8e-L	.
.	8a-	.
4c 4A- 4E-	8cc	.
.	8ee-	.
*Xped	*	*
4c 4A- 4E-	8aa-	.
.	8eenJ)	.
=34	=34	=34
*ped	*	*
4D	8ff'>L	.
.	8ff'>	.
4f 4Bn 4A-	8ff'>	.
.	8ff'>	.
*Xped	*	*
4f 4B 4A-	8ff'>	.
.	8ff'>J	.
!!LO:PB:g=original
=35	=35	=35
*ped	*	*
4E-	(>12ffL	.
.	12gg	.
.	12ffJ)	.
*clefG2	*	*
4a- 4e- 4c	(>8ee-L	<
.	8aa-J	.
4a- 4e- 4c	4ccc)	[
*Xped	*	*
.	.	.
=36	=36	=36
*clefF4	*	*
4E-	(>4fff^<	.
*clefG2	*	*
4g 4e- 4d-X	8eee-L	.
.	8ddd-XJ	.
4g 4e- 4d-	4gg)	.
=37	=37	=37
*^	*	*
4rg	2.A-	(>2aa-^<	.
(<4a- 4c	.	.	.
4a- 4f)	.	4cc^<T>	.
*v	*v	*	*
=38	=38	=38
*clefF4	*	*
!	!	!LO:DY:rj
4B- 4BB-	4b-'>)	f
4a- 4f 4B-	(>8ddL	.
.	8ee-J	.
4a- 4f 4B-	4ff 4dd	.
=39	=39	=39
4E-	4b-'>)	.
4g 4e- 4B-	(>8ee-L	.
.	8ffJ	.
4g 4e- 4B-	4gg 4ee-	.
=40	=40	=40
4D	4b-'>)	.
4a- 4f 4B-	(>8ffL	.
.	8ggJ	.
4a- 4f 4B-	4aa- 4ff)	.
=41	=41	=41
!	!	!LO:DY:rj
4E-	2bb-^^> 2gg 2dd-X	fz >
4g 4d-X 4B-	.	.
4En	8bb-L 8gg 8dd-	.
.	8bb-J 8gg 8dd-	]
!!LO:LB:g=original
=42	=42	=42
*	*^	*
4F	(>4bb-	2gg^< 2dd-X	.
4f 4A-	8cccL	.	.
.	8bb-J	.	.
4AA-	4aa-)	4cc	.
=43	=43	=43	=43
4BB-\	(>4aa-	2cc-X^<	.
4e- 4G	8bb-L	.	.
.	8aa-J	.	.
4e- 4G	4gg)	4b-	.
=44	=44	=44	=44
4BB-\	(>4gg	2b-^<	.
4d 4F	8aa-L	.	.
.	8ggJ	.	.
4d 4B-	4ff)	4a-	.
=45	=45	=45	=45
*^	*	*	*
4rd	2.E-	(>4ff	2a-^<	.
4e- 4B-	.	8ggL	.	.
.	.	8ffJ	.	.
4e- 4B-	.	4ee-)	4g	.
*v	*v	*	*	*
*	*v	*v	*
=46	=46	=46
4BB-'<	(>8b-L	<
.	8dd	.
4a- 4f 4B-	8ee-	.
.	8eenJ	.
4a- 4f 4B-	4ff 4dd)	[
=47	=47	=47
4E-	(>8b-L	<
.	8dd	.
4g 4e- 4B-	8ee-	.
.	8ffJ	.
4g 4e- 4B-	4gg 4ee-)	[
=48	=48	=48
4D	(>8b-L	<
.	8een	.
4a- 4f 4B-	8ff	.
.	8ggJ	.
4a- 4f 4B-	4aa- 4ff)	[
!!LO:LB:g=original
=49	=49	=49
*	*^	*
!	!	!	!LO:DY:rj
4E-	4.bb-^^> 4.gg 4.dd-X^<	4.ryy	f
4g 4d-X 4B-	.	.	.
.	8ryy	(>8bb-L 8gg	.
4En	4dd-	8dd-	.
.	.	8bb-J 8gg)	.
*	*v	*v	*
=50	=50	=50
!	!LO:N:vis=2	!
4F	(>8dd-XL^<	.
.	8bb-	.
4f 4A-	8ccc	.
.	8bb-J	.
4AA-	4aa- 4cc)	.
=51	=51	=51
!	!LO:N:vis=2	!
4BB-\	(>8cc-L^<	.
.	8aa-	.
4e- 4G	8bb-	.
.	8aa-J	.
4e- 4G	4gg 4b-)	.
=52	=52	=52
!	!LO:N:vis=2	!
4BB-\	(>8b-L	.
.	8gg	.
4d 4F	8aa-	.
.	8ggJ	.
4d [>4B-	4ff 4a-	.
=53	=53	=53
4e- 4B-] 4E-	4ee- 4g)	.
4r	8ee-'>L	p
.	8ee-'>	.
4d-X 4G 4E-	8ee-'>	.
.	8ee-'>J	.
=54	=54	=54
!	!LO:TX:B:i:t= leggieram.	!
4AA-	8ee-'>L	.
.	8ee-'>	.
4c 4A- 4E-	8ee-'>	.
.	8ee-'>	.
4c 4A- 4E-	8ee-'>	.
.	8ee-'>J	.
=55	=55	=55
4AA-	(>8ffL\	>
.	8ee-	.
4c 4A- 4E-	8cc	.
.	8a-	.
4c 4A- 4E-	8e-	.
.	8enJ)	]
!!LO:LB:g=original
=56	=56	=56
4AA-	8f'<L	.
.	8f'<	.
4Bn 4A- 4D	8f'<	.
.	8f'<	.
4B 4A- 4D	8f'<	.
.	8f'<J	.
=57	=57	=57
4AA-	(>8e-L	<
.	8a-	.
4c 4A- 4E-	8cc	.
.	8ee-	.
4c 4A- 4E-	8aa-	.
.	8eenJ)	[
=58	=58	=58
4D	8ff'>L	.
.	8ff'>	.
4f 4Bn 4A-	8ff'>	.
.	8ff'>	.
4f 4B 4A-	8ff'>	.
.	8ff'>J	.
=59	=59	=59
4E-	(>&(>12ff^<L	.
.	12gg	.
.	12ffJ&)	.
*clefG2	*	*
4a- 4e- 4c	8ee-L	.
.	8aa-J	.
!LO:TX:b:t=P:klucz basowy na kresce taktowej:problem	!	!
4a- 4e- 4c	4ccc)	.
*clefF4	*	*
=60	=60	=60
4E-	(>4fff^<	.
*clefG2	*	*
4g 4e- 4d-X	8eee-L	.
.	8ddd-XJ	.
4g 4e- 4d-	4gg)	.
=61	=61	=61
*^	*	*
4r	2.A-	(>4bb-^<	.
4a- 4e- 4c	.	8aa-L	.
.	.	8ee-J	.
4a- 4e- 4c	.	4cc)	.
*v	*v	*	*
=62	=62	=62
*clefF4	*	*
4AA-	8ee-'>L	.
.	8ee-'>	.
4c 4A-	8ee-'>	.
.	8ee-'>	.
4c 4A-	8ee-'>	.
.	8ee-'>J	.
!!LO:LB:g=original
=63	=63	=63
4AA-	(>\8ffL	>
.	8ee-	.
4c 4A- 4E-	8cc	.
.	8a-	.
4c 4A- 4E-	8e-	.
.	8enJ)	]
=64	=64	=64
4AA-	8f'<L	.
.	8f'<	.
4Bn 4A- 4D	8f'<	.
.	8f'<	.
4B 4A- 4D	8f'<	.
.	8f'<J	.
=65	=65	=65
4AA-	(>8e-L	<
.	8a-	.
4c 4A- 4E-	8cc	.
.	8ee-	.
4c 4A- 4E-	8aa-	.
.	8eenJ)	[
=66	=66	=66
4D	8ff'L	.
.	8ff'	.
4f 4Bn 4A-	8ff'	.
.	8ff'	.
4f 4B 4A-	8ff'	.
.	8ff'J	.
=67	=67	=67
*^	*	*
!	!	!LO:TX:a:t=P:diminuendolike accent:problem	!
4rd	2.E-	(>12ff^<L	.
.	.	12gg	.
.	.	12ffJ)	.
4e- 4c 4A-	.	(>8ee-L	.
.	.	8aa-J	.
4e- 4c 4A-	.	4ccc)	.
=68	=68	=68	=68
4rd	2.E-	(>4fff	>
4e- 4d-X 4B-	.	8eee-L	.
.	.	8ddd-XJ	]
4e- 4d- 4B-	.	4gg	.
*v	*v	*	*
=69	=69	=69
(>4AA-\	2aa-)	.
4c 4E-)	.	.
4r	(>4a-	.
=||	=||	=||
*k[b-e-a-d-g-]	*k[b-e-a-d-g-]	*
!!LO:PB:g=original
=70!|:	=70!|:	=70!|:
*>D	*>D	*
*k[b-e-a-d-g-]	*k[b-e-a-d-g-]	*
*ped	*	*
!	!LO:TX:a:t=P:łuk w źródle nie łączy się z poprzednią nutą:problem	!
(>4AA-\	2gg-^< 2ee-	.
4c 4E-	.	.
4g- 4A-)	4ddn 4bn	.
=71	=71	=71
4AA-'<	4ee-'> 4cc)	.
(>4c 4E-	8a-L	.
.	8a-J	.
*Xped	*	*
4g- 4A-)	4a-^<	.
=72	=72	=72
*ped	*	*
4D-'>	(>2bb-^< 2gg-	.
(>4d-'< 4F'<	.	.
4f 4A-)	4ggn 4een	.
=73	=73	=73
4D-'>	4aa-'> 4ff)	.
(>4d- 4F	8a-'<L	.
.	8a-'<J	.
*Xped	*	*
4f 4A-)	4a-^<	.
=74	=74	=74
*ped	*	*
4AA-'<	(>2gg-^< 2ee-	.
(>4c 4E-	.	.
4g- 4A-)	4ddn 4bn	.
=75	=75	=75
4AA-'<	4ee- 4cc)	.
(>4c 4E-	8a-L	.
.	8a-J	.
*Xped	*	*
4g- 4A-)	4a-^<	.
=76	=76	=76
*^	*	*
4rd	2.D-	(>4gg- 4b-	>
(<4A-	.	4ff 4a-	.
4c	.	4ee- 4g-X	]
*v	*v	*	*
=77	=77	=77
*ped	*	*
!LO:S:s=1:note:problem:note-level slur	!	!
4d-) 4D-	4dd- 4f)\	.
4d- 4F	8a-'<L	.
.	8a-'<J	.
*Xped	*	*
4f 4A-	4a-^<	.
=78	=78	=78
*ped	*	*
4AA-	(>2gg-^< 2ee-	.
(>4c 4E-	.	.
4g- 4A-)	4ddn 4bn	.
!!LO:LB:g=original
=79	=79	=79
4AA-	4ee- 4cc)	.
(>4c 4E-	8a-'<L	.
.	8a-'<J	.
*Xped	*	*
4g- 4A-)	4a-^<	.
=80	=80	=80
*ped	*	*
4DD-	(>2bb- 2gg-	.
(>4d- 4F	.	.
4f 4A-)	4ggn 4een	.
=81	=81	=81
4D-	4aa- 4ff)	.
(>4d- 4F	8a-'<L	.
.	8a-'<J	.
*Xped	*	*
4f 4A-)	(>4a-^<	.
=82	=82	=82
4GG-'<	4aa-'>)	.
(>4dn 4G-	(>8b-L	.
.	8aa-J)	.
4e- 4B-)	[>4gg- [<4ee-^<	.
=83	=83	=83
*	*^	*
4AA-'<	(>4.gg-]	4ee-]	.
(>4c 4F	.	4a-	.
.	8gg-	.	.
4d- 4A-)	[>4ff^>	[<4dd-	.
=84	=84	=84	=84
4AA-'<	4.ff]	4dd-]	.
4c 4A- 4E-	.	4g-	.
.	8ff	.	.
4c 4A- 4E-	4ee-	4g-	.
*	*v	*v	*
=85	=85	=85
!!LO:TX:a:B:t=1a.
*>D1	*>D1	*
4d- 4A- 4D-	4dd- 4f)\	f
4r	8a-'<L	.
.	8a-'<J	.
4r	4a-	.
=86:|!	=86:|!	=86:|!
!!LO:TX:a:B:t=2a.
*>D2	*>D2	*
4d- 4A- 4D-	4dd- 4f\	.
4r	4r	.
!	!	!LO:DY:rj
4d- 4A- 4D-	4ff 4f	ff
=87	=87	=87
.	8qff/	.
4d- 4B- 4E-	4ee-'> 4gn	.
4r	4g'>\	.
.	8qff/	.
4d- 4B- 4E-	4ee-'> 4g	.
!!LO:LB:g=original
=88	=88	=88
*>E	*>E	*
4d- 4B- 4E-	4gn'>\	.
.	8qff/	.
4r	4ee-'> 4g	.
4d- 4B- 4E-	4g'>\	.
=89	=89	=89
*ped	*	*
!	!	!LO:DY:rj
4AA-	(>8a-L	p
.	8cc	.
4c 4A- 4E-	8ee-	.
.	8aa-J	.
*Xped	*	*
4c 4A- 4E-	4ccc^<)	.
=90	=90	=90
*^	*	*
!	!	!LO:TX:a:t=P:note-head-side tuplet number:problem	!
4AA-	4ryy	(>12aa-L	>
.	.	12bb-	.
.	.	12aa-J)	]
4Bn 4A-	8DnL	(>8ffL	.
.	8FJ	8ddnJ	.
4ryy	4c 4A- 4E-	4ee-'>)	.
*v	*v	*	*
=91	=91	=91
.	8qff/	f
4d- 4B- 4E-	4ee-'> 4gn	.
4r	4g\	.
.	8qff/	.
4d- 4B- 4E-	4ee-'> 4g	.
=92	=92	=92
4d- 4B- 4E-	4gn'>\	.
.	8qff/	.
4r	4ee-'> 4g	.
4d- 4B- 4E-	4g'>\	.
=93	=93	=93
4EE-	(<12e-L	p
.	12f	.
.	12e-J)	.
4d- 4G-	(<8dnL	.
.	8e-	.
4d- 4E-	8cc	.
.	8b-J	.
=94	=94	=94
4AA-	8a-M<L	<
.	8g-	.
4c 4A-	8a-	.
.	8b-	.
4c 4E-	8cc	.
.	8dd-J)	[
=95	=95	=95
.	8qff/	f
4d- 4B- 4E-	4ee-'> 4gn	.
4r	4g'>\	.
.	8qff/	.
4d- 4B- 4E-	4ee-'> 4g	.
!!LO:LB:g=original
=96	=96	=96
4d- 4B- 4E-	4gn'>\	.
.	8qff/	.
4r	4ee-'> 4g	.
4d- 4B- 4E-	4g'>\	.
=97	=97	=97
4AA-	(>8a-L	p
.	8cc	.
4c 4A- 4E-	8ee-	.
.	8aa-J	.
4c 4A- 4E-	4ccc)	.
=98	=98	=98
*^	*	*
!	!	!LO:TX:a:t=P:diminuendolike accent:problem	!
4AA-	4ryy	(>12aa-^<L	.
.	.	12bb-	.
.	.	12aa-J)	.
4Bn 4A-	8DnL	(>8ffL	.
.	8FJ	8ddnJ	.
4rgyy	4c 4A- 4E-	4ee-)	.
*v	*v	*	*
=99	=99	=99
.	8qff/	.
4d- 4B- 4E-	4ee-'> 4gn	.
4r	4g'>\	.
.	8qff/	.
4d- 4B- 4E-	4ee-'> 4g	.
=100	=100	=100
4d- 4B- 4E-	4gn'>\	.
.	8qff/	.
4r	4ee-'> 4g	.
(>4d- 4B- 4E-	4g'>\	.
=101	=101	=101
*ped	*	*
4c 4A-)	(>8a-M>\L	<
.	8gn	.
!	!LO:TX:b:Bi:t=poco ritenuto.:dur=8e:problem:text with extention lines	!
4r	8a-	.
.	8b-	.
4r	8cc	.
.	8dd-J	.
=102	=102	=102
2.rF	8ee-L	.
.	8ff	.
.	8gg-	.
.	8ggn	.
.	8.bb-	.
.	16aa-Jk)	[
=103	=103	=103
*ped	*	*
4AA-	(>2gg-^< 2ee-	.
(>4c 4E-	.	.
4g- 4A-)	4ddn 4bn	.
!!LO:LB:g=original
=104	=104	=104
!	!LO:TX:a:t=P:w źródle kropka nad 4ee-4cc trochę z boku:problem	!
4AA-	4ee-'> 4cc)	.
(>4c 4E-	8a-'<L	.
.	8a-'<J	.
*Xped	*	*
4g- 4A-)	4a-^<	.
=105	=105	=105
*ped	*	*
4DD-	(>2bb-^< 2gg-	.
4d- 4F	.	.
4f 4A-	4ggn 4een	.
=106	=106	=106
4D-	4aa- 4ff)	.
4d- 4F	8a-'<L	.
.	8a-'<J	.
*Xped	*	*
4f 4A-	4a-^<	.
=107	=107	=107
*ped	*	*
4AA-	(>2gg-^< 2ee-	.
4c 4E-	.	.
4g- 4A-	4ddn 4bn	.
=108	=108	=108
4AA-	4ee-'> 4cc)	.
4c 4E-	8a-'<L	<
.	8a-'<J	.
4g- 4A-	(>4a-	[
*Xped	*	*
=109	=109	=109
*^	*	*
4rd	2.D-	4gg- 4b-	>
4A-	.	4ff 4a-	.
.	.	.	.
4c	.	4ee- 4g-	]
*v	*v	*	*
=110	=110	=110
*ped	*	*
4d- 4D-	4dd- 4f)	]
4d- 4F	8a-'<L	.
.	8a-'<J	.
*Xped	*	*
4f 4A-	4a-^<	.
=111	=111	=111
*ped	*	*
4AA-'<	(>2gg-^< 2ee-	.
4c 4E-	.	.
4g- 4A-	4ddn 4bn	.
!!LO:LB:g=original
=112	=112	=112
4AA-'<	4ee-'> 4cc)	.
4c 4E-	8a-L	.
.	8a-J	.
*Xped	*	*
4g- 4A-	4a-	.
=113	=113	=113
*ped	*	*
4DD-	(>2bb- 2gg-	>
4d- 4F	.	.
.	.	.
4f 4A-	4ggn 4een	]
=114	=114	=114
4D-	4aa- 4ff)	.
4d- 4F	8a-'<L	.
.	8a-'<J	.
*Xped	*	*
4f 4A-	4a-^<	.
=115	=115	=115
*	*^	*
4GG-\	4ryy	4aa-	.
4dn 4G-	4b-	8b-L	.
.	.	8aa-J	.
4e- 4B-	4ryy	[>4gg- [<4ee-	.
=116	=116	=116	=116
4AA-\	(>4.gg-]	4ee-]	.
4c 4F	.	4a-	.
.	8gg-	.	.
4d- 4A-	[>4ff	[<4dd-	.
=117	=117	=117	=117
4AA-\	4.ff]	4dd-]	.
4c 4A- 4E-	.	4g-	.
.	8ff	.	.
4c 4A- 4E-	4ee-	4g-	.
*	*v	*v	*
=118	=118	=118
4d- 4A- 4D-	4dd-'> 4f)\	.
4r	8d-'<L	.
.	8d-'<J	.
4r	4d-^<	.
=119!|:	=119!|:	=119!|:
*>F	*>F	*
!	!LO:TX:B:i:t=con anima.	!
*ped	*	*
4DD-	4a- 4f	.
4c-X 4A- 4D-	4r	.
!	!LO:TX:a:t=P:łuk nie ma początku:problem	!
4c- 4A- 4D-	(<4a- 4f	.
!!LO:PB:g=original
=120	=120	=120
.	16qqa-/LL	.
.	16qqb-/JJ	.
4DD-\	4a- 4f)	.
4c-X 4A- 4D-	8r	.
.	(<8g- 8e-	.
4c- 4A- 4D-	4a- 4f	.
=121	=121	=121
*ped	*	*
4GG-	4b- 4g-)	.
4B- 4G- 4D-	4r	.
4B- 4G- 4D-	4dd-'> 4b-	.
=122	=122	=122
4GG-'<	2.gg-^^> 2.b-	.
*Xped	*	*
4B- 4Dn	.	.
4B- 4E-	.	.
=123	=123	=123
*ped	*	*
4AA-'<	4ff'> 4a-	.
4c 4A- 4E-	8r	.
.	8ee-'>	.
4c 4A- 4E-	(>4ee-^< 4g-	.
=124	=124	=124
4AA-'<	4ff'> 4a-)	.
4c 4A- 4E-	8r	.
.	8ee-	.
4c 4A- 4E-	(>4ee-^< 4g-	.
=125	=125	=125
4AA-'<	4ff'> 4a-^<)	.
4c 4A- 4E-	8r	.
.	8ee-'>	.
*Xped	*	*
4c 4A- 4E-	(>4ee-^< 4g-	.
=126	=126	=126
*^	*	*
4rd	2.D-	4cc'> 4en)\	.
4d- 4A-	.	8r	.
.	.	8dd-'>	.
4d- 4A-	.	(>4dd-^< 4f\	.
*v	*v	*	*
=127	=127	=127
*ped	*	*
4D-'>	4aa-'> 4ff)	.
*clefG2	*	*
4cc-X 4a- 4d-	8r	.
.	(>8aa-'> 8ff	.
4cc- 4a- 4d-	4aa-^< 4ff	.
=128	=128	=128
*clefF4	*	*
.	16qqaa-L/	.
.	16qqbb-J	.
4D-'>	4aa- 4ff)	.
*clefG2	*	*
4cc-X 4a- 4d-	8r	.
.	(>8gg- 8ee-	.
4cc- 4a- 4d-	4aa- 4ff	.
!!LO:LB:g=original
=129	=129	=129
4G-	4bb-'> 4gg-)	.
4b- 4g- 4d-	4r	.
4b- 4g- 4d-	4ddd- 4bb-	.
=130	=130	=130
*	*8va	*
4G-	2.ggg-^^> 2.bb-	.
4b- 4dn	.	.
4b- 4e-	.	.
=131	=131	=131
4A-	4fff 4aa-	.
4cc 4a- 4e-	8r	.
.	8eee-'>	.
4cc 4a- 4e-	(>4eee-^< 4gg-	.
=132	=132	=132
4A-	4fff'> 4aa-)	.
4cc 4a- 4e-	8r	.
.	8eee-	.
4cc 4a- 4e-	(>4eee-^< 4gg-	.
=133	=133	=133
4A-	4fff'> 4aa-)	.
4cc 4a- 4e-	8r	.
.	8eee-'>	.
4cc 4a- 4e-	4eee-^< 4gg-	.
=134	=134	=134
!!LO:TX:a:B:t=1a.
*>F1	*>F1	*
4dd- 4a- 4d-	4ddd- 4ff\	.
*	*X8va	*
4r	4r	.
!	!LO:TX:a:t=loco.	!
4r	4d-	.
=135:|!	=135:|!	=135:|!
!!LO:TX:a:B:t=2a.
*>F2	*>F2	*
*	*8va	*
4dd- 4a- 4d-	4ddd- 4ff\	.
*	*X8va	*
4r	4r	.
!	!LO:TX:a:t=loco.	!
4r	(>4ff	.
=136!|:	=136!|:	=136!|:
*>G	*>G	*
*clefF4	*	*
.	8qff/	.
4BB-'<	4gg-X'>^<)	.
.	8qgg-/	.
4d- 4F	4een'>	.
.	8qee/	.
4d- 4F	4ff'>	.
=137	=137	=137
.	8qff/	.
4AAn'<	4gg-'>^<	.
.	8qgg-/	.
4e- 4c 4F	4een'>	.
.	8qee/	.
4e- 4c 4F	4ff'>	.
!!LO:LB:g=original
=138	=138	=138
.	(<8qff/	.
4BB-'>\	4ddd-)	>
.	8qddd-/	.
4d- 4B- 4F	4ccc	.
.	8qccc/	.
4d- 4B- 4F	4bbn	.
=139	=139	=139
.	8qccc-X/	.
4E-	4bb-X	.
.	8qbb-/	.
!	!LO:TX:a:t=P:w źródle drobna kropka nad 4aan:problem	!
4g- 4c 4B-	4aan	.
.	8qbb--/	.
4g- 4c 4B-	4aa-X	]
=140	=140	=140
.	8qaa-/	.
4F	4ggn	.
.	8qqaa--/	.
4f 4d- 4B-	4gg-X	.
.	8qgg-/	.
4f 4d- 4B-	4ff	.
=141	=141	=141
.	8qff/	.
4F	4een	.
.	8qff-X/	.
4f 4e- 4An	4ee-X	.
.	8qee-/	.
4f 4e- 4A	4cc	.
=142	=142	=142
.	8qcc/	.
4BB-\	4dd-	.
.	8qdd-/	.
4d- 4F	4an\	.
.	8qa/	.
4d- 4F	4b-	.
=143	=143	=143
.	8qb-/	<
4BB-\	4dd-	.
.	8qdd-/	.
4d- 4F	4ee-	.
.	8qee-/	.
4d- 4F	4een	[
=144	=144	=144
.	8qeen/	.
*ped	*	*
4BB-\	4gg-^<	.
.	8qgg-/	.
4d- 4F	4een	.
*Xped	*	*
.	8qee/	.
4d- 4F	4ff	.
!!LO:LB:g=original
=145	=145	=145
.	8qff/	.
*ped	*	*
4AAn'<	4gg-'>^<	.
.	8qgg-/	.
4e- 4c 4F	4een'>	.
*Xped	*	*
.	8qee/	.
4e- 4c 4F	4ff'>	.
=146	=146	=146
.	(<8qff/	.
*ped	*	*
4BB-'<	(>4fff'>)	.
.	8qfff/	.
4d- 4B- 4F	4ddd-'>	.
*Xped	*	*
.	8qddd-/	.
4d- 4B- 4F	4bb-'>	.
=147	=147	=147
.	8qbb-/	.
*ped	*	*
4E-	4gg-'>	.
.	8qgg-/	.
4g- 4c 4B-	4ee-'>	.
.	8qee-/	.
4g- 4c 4B-	4cc'>)	.
=148	=148	=148
.	8qgg-/)	.
4F	4ff'>	.
.	8qff/	.
4f 4d- 4B-	4een'>^<	.
.	8qff-X/	.
4f 4d- 4B-	4ee-X'>^<	.
=149	=149	=149
.	8qee-/	.
4F	4ddn'>^<	.
.	8qee--/	.
4f 4e- 4An	4dd-X'>^<	.
.	8qdd-/	.
4f 4e- 4A	4cc'>^<	.
=150	=150	=150
.	8qcc/	.
4f 4d- 4B-	4cc-X'>^<	.
.	8qcc-X/	.
4r	4b-X^<	.
.	8qb-/	.
4r	4an^<\	.
=151	=151	=151
.	8qb--/	.
2.r	4a-X^<\	.
.	8qa-/	.
.	4gn^<\	.
.	8qa--/	.
.	4g-X^<\	.
!!LO:LB:g=original
=152	=152	=152
*ped	*	*
4DD-	4a-^> 4f	fz
4c-X 4A- 4D-	8r	.
.	(<8a- 8f	.
4c- 4A- 4D-	4a-^> 4f	.
=153	=153	=153
.	16qqa-/LL	.
.	16qqb-/JJ	.
4DD-	4a-'< 4f)	.
4c-X 4A- 4D-	8r	.
.	(<8g- 8e-	.
*Xped	*	*
4c- 4A- 4D-	4a- 4f	.
=154	=154	=154
*ped	*	*
4GG-\	4b-'< 4g-)	.
4B- 4G- 4D-	4r	.
*Xped	*	*
4B- 4G- 4D-	4dd-'> 4b-	.
=155	=155	=155
*ped	*	*
4GG-\	2.gg-^^> 2.b-	.
4B- 4Dn	.	.
*Xped	*	*
4B- 4E-	.	.
=156	=156	=156
*ped	*	*
4AA-\	4ff 4a-	.
4c 4A- 4E-	8r	.
.	(>8ee-'>	.
4c 4A- 4E-	4ee-^< 4g-	.
=157	=157	=157
4AA-\	4ff'> 4a-)	.
4c 4A- 4E-	8r	.
.	(>8ee-'>	.
4c 4A- 4E-	4ee-^< 4g-	.
=158	=158	=158
4AA-\	4ff'> 4a-)	.
4c 4A- 4E-	8r	.
.	8ee-'>\	.
*Xped	*	*
4c 4A- 4E-	(>4ee-^< 4g-	.
=159	=159	=159
*^	*	*
4rd	2.D-	4cc 4en)\	.
4d- 4A-	.	8r	.
.	.	8dd-'> 8f\	.
4d- 4A-	.	(>4dd-^< 4f\	.
*v	*v	*	*
!!LO:LB:g=original
=160	=160	=160
*ped	*	*
4D-'>	4aa-'> 4ff)	.
*clefG2	*	*
4cc-X 4a- 4d-	8r	.
.	(>8aa-'> 8ff	.
4cc- 4a- 4d-	4aa-^< 4ff	.
=161	=161	=161
*clefF4	*	*
.	16qqaa-/LL	.
.	16qqbb-/JJ	.
4D-	4aa- 4ff)	.
*clefG2	*	*
4cc-X 4a- 4d-	8r	.
.	(>8gg- 8ee-	.
*Xped	*	*
4cc- 4a- 4d-	4aa-'>^< 4ff	.
=162	=162	=162
*ped	*	*
4G-	4bb-'> 4gg-)	.
4b- 4g- 4d-	4r	.
4b- 4g- 4d-	4dd-'> 4b-	.
=163	=163	=163
*	*8va	*
4G-	2.ggg-^^> 2.bb-	.
*Xped	*	*
4b- 4dn	.	.
4b- 4e-	.	.
=164	=164	=164
4A-	4fff 4aa-	.
4cc 4a- 4e-	8r	.
.	(>8eee-'>	.
4cc 4a- 4e-	4eee-^< 4gg-	.
=165	=165	=165
4A-	4fff 4aa-)	.
4cc 4a- 4e-	8r	.
.	(>8eee-'>	.
4cc 4a- 4e-	4eee-^< 4gg-	.
=166	=166	=166
4A-	4fff 4aa-)	.
4cc 4a- 4e-	8r	.
.	(>8eee-'>	.
4cc 4a- 4e-	4eee-^< 4gg-	.
=167	=167	=167
!!LO:TX:a:B:t=1a.
*>G1	*>G1	*
4dd- 4a- 4d-	4ddd-\ 4ff)	.
*	*X8va	*
4r	4r	.
!	!LO:TX:a:t=loco.	!
4r	4ff	.
=168:|!	=168:|!	=168:|!
!!LO:TX:a:B:t=2a.
*>G2	*>G2	*
4dd- 4a- 4d-	4ddd- 4ff	.
4r	4r	.
4r	8dd-L	.
.	8dd-J	.
*clefF4	*	*
!!LO:PB:g=original
=169	=169	=169
*>H	*>H	*
*^	*	*
!	!	!LO:TX:a:B:i:t= dolce.	!
4rd	2.BB-	(>8dd-L	<
.	.	8ee-	.
4d- 4G-	.	8dd-	.
.	.	8cc	.
4d- 4G-	.	8dd-	.
.	.	8ddnJ	[
*v	*v	*	*
=170	=170	=170
4C-X\	2ff	>
4e- 4A- 4G-	.	.
4e- 4A- 4G-	4ee-)	]
=171	=171	=171
*^	*	*
4rd	2.D-	(<8a-L	<
.	.	8b-	.
4c-X 4F	.	8a-	.
.	.	8gn	.
4c- 4F	.	8a-	.
.	.	8anJ	[
*v	*v	*	*
=172	=172	=172
4GG-\	4b-/	.
4B- 4D-	8g-)	.
.	(>8b-L	<
4B- 4D-	8cc-X	.
.	8ccnJ	.
=173	=173	=173
*^	*	*
4rd	2.BB-	8dd-M>L	.
.	.	8cc	.
4d- 4G-	.	8dd-	.
.	.	8bb-J)	[
4d- 4G-	.	(>8aa-L	.
.	.	8gg-J	.
*v	*v	*	*
=174	=174	=174
4C-X\	2ff^<	.
4e- 4A- 4G-	.	.
4e- 4A- 4G-	4ee-)	.
!!LO:LB:g=original
=175	=175	=175
*^	*	*
!	!	!LO:TX:a:t=P:note-head-side tuplet number:problem	!
4rd	2.D-	(<12a-L	.
.	.	12b-	.
.	.	12a-J)	.
4c-X 4F	.	(<8gnL	.
.	.	8a-	.
4c- 4F	.	8cc-X	.
.	.	8b-J	.
*v	*v	*	*
=176	=176	=176
4GG-\	8g-X)	.
.	(<8cL	.
4B- 4D-	8d-	.
.	8f	.
4B- 4D-	8g-	.
.	8b-J)	.
=177	=177	=177
*^	*	*
4rd	2.BB-	(>8dd-L	.
.	.	8ee-	.
4d- 4G-	.	8dd-	.
.	.	8cc	.
4d- 4G-	.	8dd-	.
.	.	8ddnJ	.
*v	*v	*	*
=178	=178	=178
.	8qddn/	.
4C-X\	2ff^<	.
4e- 4A- 4G-	.	.
4e- 4A- 4G-	4ee-)	.
=179	=179	=179
*^	*	*
4rd	2.D-	(<8a-L	<
.	.	8b-	.
4c-X 4F	.	8a-M<	.
.	.	8g-	.
4c- 4F	.	8a-	.
.	.	8anJ	.
*v	*v	*	*
=180	=180	=180
4GG-	4b-/	[
4B- 4D-	8g-)	.
.	(>8b-L	.
4B- 4D-	8cc-X	.
.	8ccnJ)	.
!!LO:LB:g=original
=181	=181	=181
*^	*	*
*	*	*Xtuplet	*
4rd	2.BB-	8dd-M>L	.
.	.	(>8ccJ	.
4d- 4G-	.	12dd-L	.
.	.	12ccc-X'>)	.
.	.	12bb-J	.
4d- 4G-	.	(>12bb-L	.
.	.	12aa-	.
.	.	12gg-J)	.
*	*	*tuplet	*
*v	*v	*	*
=182	=182	=182
4C-X\	(>2ff^<)	.
4e- 4G-	.	.
4e- 4A-	4ee-)	.
=183	=183	=183
*^	*	*
4rd	2.D-	(<12a-L	.
.	.	12b-	.
.	.	12a-J)	.
4c-X 4F	.	(>8gn\L	.
.	.	8a-	.
4c- 4F	.	8cc-X	.
.	.	8b-J)	.
*v	*v	*	*
=184	=184	=184
4GG-	4g-X	.
4B- 4D-	4r	.
4r	8b-'<L/	.
.	8b-'<J	.
=185	=185	=185
4BB- 4BBB-	4b-/	.
4r	4r	.
(>4f^< 4B- 4A-	8b-'<L/	.
.	8b-'<J	.
=186	=186	=186
4en 4B- 4Gn)	4b-/	.
4r	4r	.
(>4e-X^< 4B- 4G-X	8b-'<L/	.
.	8b-'<J	.
!!LO:LB:g=original
=187	=187	=187
!LO:TX:a:t=P:łuk nie ma zakończenia:problem	!	!
4dn 4B- 4F)	4b-'>	.
!	!	!LO:DY:rj
8BB-'<L 8BBB-	8bb-'>L 8b-	ff
8BB-'<J 8BBB-	8bb-'>J 8b-	.
4BB-'< 4BBB-	4bb-'> 4b-	.
=188	=188	=188
8BB-'<L 8BBB-	8bb-'>L 8b-	.
8BB-'<J 8BBB-	8bb-'>J 8b-	.
4BB-'< 4BBB-	4bb-'> 4b-	.
8BB-'<L 8BBB-	8bb-'>L 8b-	.
8BB-'<J 8BBB-	8bb-'>J 8b-	.
=189	=189	=189
4BB-'< 4BBB-	4bb-'> 4b-	.
4r	4r	.
!	!	!LO:DY:rj
(>4A- 4BB-	8b-'<L 8f 8B-	p
.	8b-'<J 8B-	.
=190	=190	=190
4G- 4BB-)	4b-'< 4en 4B-	.
4r	4r	.
(>4G-X^< 4BB-	8b-'<L 8e-X 8B-	.
.	8b-'<J 8B-	.
=191	=191	=191
*	*	*^
4F 4BB-)	4b-'< 4dn 4B-	.	.
4r	8b-'<L 8B-	<	.
.	8b-'<J 8B-	.	.
4r	4b-'< 4B-	.	.
=192	=192	=192	=192
2.r	8b-L 8B-	.	.
.	8b-J 8B-	.	.
!	!	!	!LO:HP:a
.	.	.	<
.	4b- 4B-	.	.
.	8b-L 8B-	.	.
.	8b-J 8B-	[	.
*	*	*v	*v
!!LO:LB:g=original
=193||	=193||	=193||
*k[b-e-a-]	*k[b-e-a-]	*
*ped	*	*
!	!	!LO:DY:rj
4BB- 4BBB-	4b-\ 4B-	f
4a- 4f 4B-	(>8ddL	.
.	8ee-J	.
*Xped	*	*
4a- 4f 4B-	4ff 4dd)	.
=194	=194	=194
*ped	*	*
4E- 4EE-	4b-'>	.
4g 4e- 4B-	(>8ee-L	<
.	8ffJ	.
*Xped	*	*
4g 4e- 4B-	4gg 4ee-)	[
=195	=195	=195
*ped	*	*
4B- 4BB-	4b-'>	<
4a- 4d 4B-	(>8ffL	.
.	8ggJ	.
*Xped	*	*
4a- 4d 4B-	4aa- 4ff)	[
=196	=196	=196
*ped	*	*
4E-	2bb-^^> 2gg 2dd-X	fz
4g 4d-X 4B-	.	.
*Xped	*	*
4En	8bb-L 8gg 8dd-	.
.	8bb-J 8gg 8dd-	.
=197	=197	=197
*	*^	*
4F	(>4bb-	2gg^< 2dd-X	.
4f 4A-	8cccL	.	.
.	8bb-J	.	.
4AA-	4aa-)	4cc	.
=198	=198	=198	=198
*ped	*	*	*
4BB-	(>4aa-	2cc-X^<	.
4e- 4G	8bb-L	.	.
.	8aa-J	.	.
*Xped	*	*	*
4e- 4G	4gg)	4b-	.
!!LO:LB:g=original
=199	=199	=199	=199
4BB-	(>4gg	2b-^<	.
4d 4F	8aa-L	.	.
.	8ggJ	.	.
4d 4B-	4ff)	4a-	.
=200	=200	=200	=200
*^	*	*	*
4rd	2.E-	(>4ff	2a-^<	.
4e- 4B-	.	8ggL	.	.
.	.	8ffJ	.	.
4e- 4B-	.	4ee-)	4g	.
*v	*v	*	*	*
*	*v	*v	*
=201	=201	=201
*ped	*	*
4B- 4BB-	4bb- 4b-	fz
4a- 4f 4B-	(>8ddL	.
.	8ee-J	.
*Xped	*	*
4a- 4f 4B-	4ff 4dd)	.
=202	=202	=202
*ped	*	*
4E- 4EE-	4bb- 4b-	fz
4g 4e- 4B-	(>8ee-L	.
.	8ffJ	.
*Xped	*	*
4g 4e- 4B-	4gg 4ee-)	.
=203	=203	=203
*ped	*	*
4B- 4BB-	4bb- 4b-	fz
4a- 4d 4B-	(>8ffL	.
.	8ggJ	.
*Xped	*	*
4a- 4d 4B-	4aa- 4ff)	.
=204	=204	=204
*	*^	*
4E-	4.bb- 4.gg 4.dd-X	4.ryy	.
4g 4d-X 4B-	.	.	.
.	8ryy	8bb-L 8gg	.
4En	4dd-X	8dd-X	.
.	.	8bb-J 8gg	.
*	*v	*v	*
!!LO:PB:g=original
=205	=205	=205
!	!LO:N:vis=2	!
4F	(>8dd-L	.
.	8bb-	.
4f 4A-	8ccc	.
.	8bb-J	.
4AA-	4aa- 4cc)	.
=206	=206	=206
!	!LO:N:vis=2	!
4BB-\	(>8cc-L	.
.	8aa-	.
4e- 4G	8bb-	.
.	8aa-J	.
4e- 4G	4gg 4b-)	.
=207	=207	=207
!	!LO:N:vis=2	!
4BB-\	(>8b-L	.
.	8gg	.
4d 4F	8aa-	.
.	8ggJ	.
4d [>4B-	4ff 4a-)	.
=208	=208	=208
4e- 4B-] 4E-	4ee- 4g	.
!	!LO:TX:a:B:i:t=leggieram.	!
4r	8ee-'>L	p
.	8ee-'>	.
4d-X 4G 4E-	8ee-'>	.
.	8ee-'>J	.
=209	=209	=209
4AA-\	8ee-'>L	<
.	8ee-'>	.
4c 4A- 4E-	8ee-'>	.
.	8ee-'>	.
4c 4A- 4E-	8ee-'>	.
.	8ee-'>J	[
=210	=210	=210
4AA-\	(>8ff\L	>
.	8ee-	.
4c 4A- 4E-	8cc	.
.	8a-	.
4c 4A- 4E-	8e-	.
.	8enJ)	]
!!LO:LB:g=original
=211	=211	=211
4AA-	8f'<L	.
.	8f'<	.
4Bn 4A- 4D	8f'<	.
.	8f'<	.
4B 4A- 4D	8f'<	.
.	8f'<J	.
=212	=212	=212
4AA-	(>8e-L	<
.	.	.
.	8a-	.
4c 4A- 4E-	8cc	.
.	8ee-	.
4c 4A- 4E-	8aa-	.
.	8eenJ)	[
=213	=213	=213
4D	8ff'>L	.
.	8ff'>	.
4f 4Bn 4A-	8ff'>	.
.	8ff'>	.
4f 4B 4A-	8ff'>	.
.	8ff'>J	.
=214	=214	=214
4E-	(>12ffL	.
.	12gg	.
.	12ffJ)	.
*clefG2	*	*
4a- 4e- 4c	(>8ee-L	<
.	8aa-J	.
4a- 4e- 4c	4ccc)	[
*clefF4	*	*
=215	=215	=215
4E-	(>4fff	>
*clefG2	*	*
4g 4e- 4d-X	8eee-L	.
.	8ddd-XJ	]
4g 4e- 4d-	4gg)	.
=216	=216	=216
*^	*	*
4r	4A-	(>4bb-	.
4a- 4e- 4c	4ryy	8aa-L	.
.	.	8ee-J	.
4a- 4e- 4c	4ryy	4cc)	.
*v	*v	*	*
*clefF4	*	*
!!LO:LB:g=original
=217	=217	=217
4AA-	8ee-'>L	.
.	8ee-'>	.
4c 4A- 4E-	8ee-'>	.
.	8ee-'>	.
4c 4A- 4E-	8ee-'>	.
.	8ee-'>J	.
=218	=218	=218
4AA-	(>\8ffL	.
.	8ee-	.
4c 4A- 4E-	8cc	.
.	8a-	.
4c 4A- 4E-	8e-	.
.	8enJ)	.
=219	=219	=219
4AA-	8f'<L	.
.	8f'<	.
4Bn 4A- 4D	8f'<	.
.	8f'<	.
4B 4A- 4D	8f'<	.
.	8f'<J	.
=220	=220	=220
4AA-	(>8e-L	.
.	8a-	.
4c 4A- 4E-	8cc	.
.	8ee-	.
4c 4A- 4E-	8aa-	.
.	8eenJ)	.
=221	=221	=221
4D	8ff'>L	.
.	8ff'>	.
4f 4Bn 4A-	8ff'>	.
.	8ff'>	.
4f 4B 4A-	8ff'>	.
.	8ff'J	.
=222	=222	=222
4E-	(>12ffL	.
.	12gg	.
.	12ffJ)	.
*clefG2	*	*
4a- 4e- 4c	(>8ee-L	.
.	8aa-J	.
4a- 4e- 4c	4ccc)	.
*clefF4	*	*
!!LO:LB:g=original
=223	=223	=223
4E-	(>4fff	.
*clefG2	*	*
4g 4e- 4d-X	8eee-L	.
.	8ddd-XJ	.
4g 4e- 4d-	4gg)	.
=224	=224	=224
*^	*	*
4r	2.A-	4aa-	.
4a- 4c	.	4r	.
4a- 4f 4c	.	(>4cc^<T>	.
*v	*v	*	*
=225	=225	=225
*clefF4	*	*
!	!	!LO:DY:rj
4B- 4BB-	4b-'>)	f
4a- 4f 4B-	(>8ddL	.
.	8ee-J	.
4a- 4f 4B-	4ff 4dd)	.
=226	=226	=226
4E-	4b-'>	.
4g 4e- 4B-	(>8ee-L	.
.	8ffJ	.
4g 4e- 4B-	4gg 4ee-)	.
=227	=227	=227
4D	4b-'>	.
4a- 4f 4B-	(>8ffL	.
.	8ggJ	.
4a- 4f 4B-	4aa- 4ff)	.
=228	=228	=228
4E-	2bb-^^> 2gg 2dd-X	.
4g 4e- 4B-	.	.
4En	8bb-L 8gg 8dd-	.
.	8bb-'>J 8gg 8dd-	.
!!LO:LB:g=original
=229	=229	=229
*	*^	*
4F	4bb-	2gg^< 2dd-X	.
4f 4A-	8cccL	.	.
.	8bb-J	.	.
4AA-	4aa-	4cc	.
=230	=230	=230	=230
4BB-\	(>4aa-	2cc-X^<	.
4e- 4G	8bb-L	.	.
.	8aa-J	.	.
4e- 4G	4gg)	4b-	.
=231	=231	=231	=231
4BB-\	(>4gg	2b-^<	.
4d 4F	8aa-L	.	.
.	8ggJ	.	.
4d 4B-	4ff)	4a-	.
=232	=232	=232	=232
*^	*	*	*
4rd	2.E-	(>4ff	2a-^<	.
4e- 4B-	.	8ggL	.	.
.	.	8ffJ	.	.
4e- 4B-	.	4ee-)	4g	.
*v	*v	*	*	*
*	*v	*v	*
=233	=233	=233
4BB- 4BBB-	4bb-'> 4b-	fz
4a- 4f 4B-	(>8ddL	.
.	8ee-J	.
4a- 4f 4B-	4ff 4dd)	.
=234	=234	=234
4E- 4EE-	4bb-'> 4b-	fz
4g 4e- 4B-	(>8ee-L	.
.	8ffJ	.
4g 4e- 4B-	4gg 4ee-)	.
!!LO:LB:g=original
=235	=235	=235
4B- 4BB-	4bb- 4b-	fz
4a- 4f 4B-	(>8ffL	.
.	8ggJ	.
4a- 4f 4B-	4aa- 4ff)	.
=236	=236	=236
!	!	!LO:DY:rj
4g 4d-X 4B- 4E-	4bb- 4gg 4dd-X	fz
4r	4r	.
4r	4r	.
=237	=237	=237
!	!LO:TX:b:B:t=1	!
2.r	2.r	.
=238	=238	=238
4r	4r	.
4r	4r	.
4En'>	8bb-L 8gg 8dd-X	p
.	8bb-J 8gg 8dd-	.
=239	=239	=239
*	*^	*
4F'>	(>4bb-	2gg^< 2dd-X	.
4f 4A-	8cccL	.	.
.	8bb-J	.	.
4AA-	4aa-)	4cc	.
=240	=240	=240	=240
4BB-	(>4aa-	2cc-X^<	.
4e- 4G	8bb-L	.	.
.	8aa-J	.	.
4e- 4G	4gg)	4b-	.
=241	=241	=241	=241
4BB-\	(>4gg	2b-^<	.
4d 4B- 4F	8aa-L	.	.
.	8ggJ	.	.
4d 4B- 4F	4ff)	4a-	.
*	*v	*v	*
=242	=242	=242
!	!LO:TX:b:B:t= 1	!
2.r	2.r	.
!!LO:PB:g=original
=243	=243	=243
*ped	*	*
!LO:TX:b:t=P:znak pedalizacji przed nutą:problem	!	!
4EE-\	2.rdd	p
4G 4BB-	.	.
4G 4BB-	.	.
=244	=244	=244
4EE-\	2.rdd	.
4G 4BB-	.	.
4G 4BB-	.	.
=245	=245	=245
4EE-\	2.rdd	.
4G 4BB-	.	.
4G 4BB-	.	.
=246	=246	=246
4EE-\	2.rdd	.
4G 4BB-	.	.
4G 4BB-	.	.
=247	=247	=247
4EE-	8e-'<L	.
.	8e-'<	.
4G 4BB-	8e-'<	.
.	8e-'<J	.
4G 4BB-	4e-^<	.
=248	=248	=248
4EE-	(<8GL	.
.	8B-	.
4G 4BB-	8e-	.
.	8gJ)	.
*Xped	*	*
4G 4BB-	4cc^<	.
=249	=249	=249
!	!LO:TX:a:Bi:t=poco_ a_ poco:dur=7q:problem:text with extention lines	!
!	!LO:TX:a:t=P:poco a poco zaczyna się nad pierwszą przednutką:problem	!
.	8qcc/	>
4EE-	4bn	.
.	8qcc-X/	.
4d-X 4G 4E-	4b-X	.
.	8qb-/	.
4d- 4G 4E-	4an\	]
!!LO:LB:g=original
=250	=250	=250
.	8qb--/	>
4d-X 4G 4E-	4a-X\	.
.	8qa-/	.
4d- 4G 4E-	4g\	.
.	8qg/	.
4d- 4G 4E-	4f\	]
=251	=251	=251
4EE-\	8e-'<L	.
.	8e-'<	.
4c 4A- 4E-	8e-'<	.
.	8e-'<J	.
4c 4A- 4E-	4e-^<	.
=252	=252	=252
*	*	*^
!	!LO:TX:a:Bi:t=cre_ scen_ do.:problem:dynamics with extention lines	!	!
!	!	!LO:HP:a:Bi:t=cre_scen_do.:ext=ud	!
4EE-\	(<8cL	<	.
.	8e-	.	.
4c 4A- 4E-	8a-	.	.
.	8ccJ)	.	.
4c 4A- 4E-	4ff^<	.	.
=253	=253	=253	=253
.	8qgg/	.	.
4EE-\	4ff'>	.	>
.	8qff/	.	.
4c 4A- 4E-	4een'>	.	.
.	8qff-X/	.	.
4c 4A- 4E-	4ee-X'>	.	.
=254	=254	=254	=254
.	8qee-/	.	.
4c 4A- 4E-	4dd'>	.	.
.	8qee--/	.	.
4c 4A- 4E-	4dd-X'>	.	.
.	8qdd-/	.	.
4c 4A- 4E-	4cc'>	.	]
=255	=255	=255	=255
*ped	*	*	*
!LO:TX:b:t=P:znak pedalizacji przed nutą:problem	!	!	!
4E-\ 4EE-	8cc-X'>L	.	.
.	8cc-'>	.	.
4dn 4A- 4E-	8cc-'>	.	.
.	8cc-'>	.	.
4d 4A- 4E-	8cc-'>	.	.
.	8cc-'>J	.	.
!!LO:LB:g=original
=256	=256	=256	=256
4E-\ 4EE-	(>8a-L	.	<
.	8cc-X	.	.
4d 4A- 4E-	8dd	.	.
.	8ffJ	.	.
*Xped	*	*	*
4d 4A- 4E-	4ccc-X)	.	[
=257	=257	=257	=257
*ped	*	*	*
!LO:TX:b:t=P:znak pedalizacji przed nutą:problem	!	!	!
.	8qccc-/	.	.
4E-\ 4EE-	4bb-	.	>
.	8qbb-/	.	.
4d 4Bn 4A- 4E-	4aan	.	.
.	8qbb--/	.	.
4d 4B 4A- 4E-	4aa-X	.	.
=258	=258	=258	=258
.	8qaa-/	.	.
4d 4Bn 4A- 4E-	4gg	.	]
.	8qaa--/	.	.
4d 4B 4A- 4E-	4gg-X	.	.
.	8qgg-/	.	.
*Xped	*	*	*
4d 4B 4A- 4E-	4ff	[	.
*	*	*v	*v
=259	=259	=259
.	8qff/	.
*ped	*	*
4d 4Bn 4A- 4E-	4ggg	f>
.	8qggg/	.
4d 4B 4A- 4E-	4fff	.
.	8qfff/	.
4d 4B 4A- 4E-	4eeen	.
=260	=260	=260
.	8qfff-X/	.
4d 4Bn 4A- 4E-	4eee-X	.
.	8qeee-/	.
4d 4B 4A- 4E-	4ddd	.
.	8qeee--/	.
*Xped	*	*
4d 4B 4A- 4E-	4ddd-X	]
=261	=261	=261
.	8qddd-X/	.
*ped	*	*
4d 4B-X 4A- 4E-	4ccc'>	<
.	8qccc/	.
4d 4B- 4A- 4E-	4bbn'>	.
.	8qccc-X/	.
4d 4B- 4A- 4E-	4bb-X'>	[
!!LO:LB:g=original
=262	=262	=262
.	8qbb-/	<
4d 4B-X 4A- 4E-	4aan'>	.
.	8qbb--/	.
4d 4B- 4A- 4E-	4aa-'>	.
.	8qaa-/	.
*Xped	*	*
4d 4B- 4A- 4E-	4ff'>	[
=263	=263	=263
*ped	*	*
4E- 4EE-	4eee-^^> 4ee-	.
*clefG2	*	*
4b- 4g 4e- 4d-X	(>8ggL	<
.	8aa-J	.
*Xped	*	*
!LO:TX:b:t=P:klucz basowy na kresce taktowej:problem	!	!
4b- 4g 4e- 4d-	4bb- 4gg)	[
*clefF4	*	*
=264	=264	=264
*ped	*	*
4E- 4EE-	4eee-^^> 4ee-	fz
*clefG2	*	*
4b-- 4g-X 4e- 4c	(>8gg-XL	<
.	8aa-J	.
*Xped	*	*
4b-- 4g- 4e- 4c	4bb-- 4gg-)	[
!LO:TX:b:t=P:klucz basowy na kresce taktowej:problem	!	!
*clefF4	*	*
=265	=265	=265
*ped	*	*
4E- 4EE-	4eee-^^> 4ee-	.
*clefG2	*	*
4a- 4f 4e- 4c-X	(>8ffL	<
.	8ggJ	.
4a- 4f 4e- 4c-	4aa- 4ff)	[
!LO:TX:b:t=P:problem:klucz basowy na kresce taktowej	!	!
*clefF4	*	*
=266	=266	=266
*ped	*	*
4E- 4EE-	2bb-^^> 2gg 2b-	f
4g 4e- 4B- 4G	.	.
*Xped	*	*
4g 4e- 4B- 4G	8bb-L 8gg 8b-	.
.	8bb-J 8gg 8b-	.
=267	=267	=267
*	*^	*
!	!	!LO:TX:a:t=P:note position:problem	!
4BB- 4BBB-	2.bb-^<\ 2.b-\	(>4gg	.
4f 4d 4B- 4A-	.	8aa-L	.
.	.	8ggJ	.
4f 4d 4B- 4A-	.	4ff)	.
!!LO:LB:g=original
=268	=268	=268	=268
!	!	!LO:TX:a:t=P:note position:problem	!
4E- 4EE-	2.bb-\ 2.b-\	(>4ff	.
4e- 4B- 4G	.	8ggL	.
.	.	8ffJ	.
4e- 4B- 4G	.	4ee-)	.
=269	=269	=269	=269
4B- 4BB-	(>2gg^>	4b-	.
4d 4B- 4A- 4F	.	8ccL	.
.	.	8b-J	.
4d 4B- 4A- 4F	4ff)	4a-	.
=270	=270	=270	=270
4E- 4EE-	(>2ff^>	4a-	.
4d-X 4B- 4E-	.	8b-L	.
.	.	8a-J	.
4d- 4B- 4E-	4ee-)	4g	.
=271	=271	=271	=271
4A- 4AA-	2.ee-^> 2.e-	4e-	fz
4c 4A- 4E-	.	8a-L	<
.	.	8b-J	.
4c 4A- 4E-	.	4cc 4a-	[
=272	=272	=272	=272
4A- 4AA-	2.ee-^> 2.e-	4e-	.
4c-X 4A- 4E-	.	(>8a-L	<
.	.	8b-J	.
4c- 4A- 4E-	.	4cc-X 4a-)	[
=273	=273	=273	=273
4EE-	2.ee-^> 2.e-	(>4e-	.
4G 4E- 4BB-	.	8gL	.
.	.	8a-J	.
4G 4E- 4BB-	.	4b- 4g)	.
*	*v	*v	*
!!LO:LB:g=original
=274	=274	=274
4EE-	2b-^> 2g 2B-	.
4G 4E- 4BB-	.	.
4G 4E- 4BB-	8b-L 8g 8B-	.
.	8b-J 8g 8B-	.
=275	=275	=275
*	*^	*
!	!	!LO:TX:a:t=P:note position:problem	!
4EE-	2.b- 2.B-	(>4g	.
4A- 4D 4BB-	.	8a-L	.
.	.	8gJ	.
4A- 4D 4BB-	.	4f)	.
=276	=276	=276	=276
!	!	!LO:TX:a:t=P:note position:problem	!
4EE-	2.b-^> 2.B-	(>4f	.
4G 4E- 4BB-	.	8gL	.
.	.	8fJ	.
4G 4E- 4BB-	.	4e-)	.
=277	=277	=277	=277
4EE-	8cc-'<L	8d	.
.	8cc-'<	8ryy	.
4A- 4F 4BB-	8cc-'<	2ryy	.
.	8cc-'<	.	.
4A- 4F 4BB-	8cc-'<	.	.
.	8cc-'<J	.	.
*	*v	*v	*
=278	=278	=278
4EE-	(<8cc-L	.
.	8b-	.
4G 4E- 4BB-	8g	.
.	8e-J	.
4G 4BB-	4B-)	.
=279	=279	=279
*	*^	*
!	!	!LO:TX:a:t=P:note position:problem	!
!	!	!	!LO:HP:a
4EE-	2.b- 2.B-	(>4g	>
4A- 4D 4BB-	.	8a-L	.
.	.	8gJ	.
4A- 4D 4BB-	.	4f)	.
!!LO:PB:g=original
=280	=280	=280	=280
!	!	!LO:TX:a:t=P:note position:problem	!
4EE-	2.b- 2.B-	(>4f	.
4G 4E- 4BB-	.	8gL	.
.	.	8fJ	.
4G 4E- 4BB-	.	4e-)	.
=281	=281	=281	=281
4EE-	8cc-'<L	8d	.
.	8cc-'<	8ryy	.
4A- 4F 4BB-	8cc-'<	2ryy	.
.	8cc-'<	.	.
4A- 4F 4BB-	8cc-'<	.	.
.	8cc-'<J	.	.
*	*v	*v	*
=282	=282	=282
4EE-	(<8ccL	.
.	8b-	.
4G 4BB-	8g	.
.	8e-J	.
4G 4BB-	4B-)	.
=283	=283	=283
*	*^	*
4EE-	8cc-'<XL	8d-	.
.	8cc-'<	8ryy	.
4A- 4F 4BB-	8cc-'<	2ryy	.
.	8cc-'<	.	.
4A- 4F 4BB-	8cc-'<	.	.
.	8cc-'<J	.	.
*	*v	*v	*
=284	=284	=284
4EE-	(<8cc-XL	.
.	8b-	.
4A- 4F 4BB-	8a-	.
.	8fJ	.
4A- 4F 4BB-	4d'<)	.
=285	=285	=285
4EE-	(>8ggL	.
.	8ff	.
4A- 4F 4BB-	8dd	.
.	8cc-XJ)	.
4A- 4F 4BB-	4a-'<	.
!!LO:LB:g=original
=286	=286	=286
4EE-	(>8ccc-XL	.
.	8aa-	.
4A- 4F 4BB-	8ff	.
.	8ddJ	.
4A- 4F 4BB-	4cc-X'>)	.
=287	=287	=287
*	*8va	*
4E- 4EE-	(>8cccc-XL	ff
.	8ggg	.
4d 4Bn 4A- 4E-	8cccc-	.
.	8aaa-X	.
4r	8fff	.
.	8dddJ	.
*	*X8va	*
=288	=288	=288
!	!LO:TX:a:B:t= loco.	!
4d 4Bn 4A- 4E-	8ccc-XL	.
.	8gg	.
4d 4B 4A- 4E-	8ccc-	.
.	8aa-	.
4r	8ff	.
.	8ddJ	.
=289	=289	=289
4d 4Bn 4A- 4E-	8cc-X\L	.
.	8g	.
4d 4B 4A- 4E-	8cc-	.
.	8a-	.
4r	8f	.
.	8dJ	.
=290	=290	=290
2.rD	8c-<XL	.
.	8G<	.
.	8c-<	.
.	8A-<	.
.	8F<	.
.	8D<J	.
=291	=291	=291
4EE- 4EEE-\	8E-</)	fz
.	8rA<	.
4rBB	(>8G<L	.
.	8A-<	.
4rBB	8B-<	.
.	8c<J	.
!!LO:LB:g=original
=292	=292	=292
2.r	8dL	.
.	8e-	.
.	8f	.
.	8g	.
.	8a-	.
.	8anJ	.
=293	=293	=293
!	!LO:TX:a:B:i:t= acceller.	!
4r	8cc\L	.
.	8b-	.
4e- 4B- 4G	8g	.
.	8a-	.
4g 4e- 4B- 4G	8b-	.
.	8ccJ	.
=294	=294	=294
4g 4e- 4B- 4G	8ddL	.
.	8ee-	.
4g 4e- 4B- 4G	8ff	.
.	8gg	.
4g 4e- 4B- 4G	8aa-	.
.	8aanJ	.
=295	=295	=295
*	*8va	*
!	!LO:TX:b:Bi:t=cresc.:problem:dynamics with extention lines	!
!	!	!LO:HP:b:Bi:t=cresc.:ext=ud
4g 4e- 4B- 4G	8ccc\L	<
.	8bb-	.
4g 4e- 4B- 4G	8gg	.
.	8aa-	.
4g 4e- 4B- 4G	8bb-	.
.	8cccJ	.
=296	=296	=296
4g 4e- 4B- 4G	8dddL	.
.	8eee-	.
4g 4e- 4B- 4G	8fff	.
.	8ggg	.
4g 4e- 4B- 4G	8aaa-	.
.	8aaanJ	.
=297	=297	=297
4g 4e- 4B- 4G	8ccccL	.
.	8bbb-	.
4g 4e- 4B- 4G	8ggg	.
.	8aaa-	[
!	!LO:TX:b:Bi:t=dim.:problem:dynamics with extention lines	!
!	!	!LO:HP:b:Bi:t=dim.:ext=ud
4g 4e- 4B- 4G	8aaan	>
.	8bbb-J	.
!!LO:LB:g=original
=298	=298	=298
4g 4e- 4B- 4G	8ccccL	.
.	8bbb-	.
4g 4e- 4B- 4G	8ggg	.
.	8aaa-	.
4g 4e- 4B- 4G	8aaan	.
.	8bbb-J	.
=299	=299	=299
4g 4e- 4B- 4G	8eeee-)	.
.	8r	.
4r	(>8gggL	.
.	8aaa-	.
4r	8aaan	.
.	8bbb-J)	.
=300	=300	=300
4e- 4G 4E-	4eeee-'>	.
4r	(>8gggL	.
.	8aaa-	.
4r	8aaan	.
.	8bbb-J)	.
=301	=301	=301
4g 4e- 4B- 4G	4eeee-'>	.
4r	(>8gggL	.
.	8aaa-	.
4r	8aaan	.
.	8bbb-J)	]]
*clefG2	*	*
=302	=302	=302
4b- 4g 4B-	4eeee-'>	.
4r	(>8gggL	.
.	8aaa-	.
4r	8aaan	.
.	8bbb-J)	.
=303	=303	=303
4ee-\ 4g 4e-	4eeee-'>	.
4r	(>8gggL	.
.	8aaa-	.
4r	8aaan	.
.	8bbb-J)	.
!!LO:LB:g=original
=304	=304	=304
!	!LO:TX:b:Bi:t=smorz._:dur=9q:problem:text with extention lines	!
!	!LO:TX:t=P:kreseczki do końca t.306:problem	!
4b- 4g 4B-	4eeee-'>	.
4r	(>8gggL	.
.	8aaa-	.
4r	8aaan	.
.	8bbb-J)	.
=305	=305	=305
4gg 4ee- 4g	4eeee-'>	.
4r	(>8gggL	.
.	8aaa-	.
4r	8aaan	.
.	8bbb-J)	.
=306	=306	=306
4bb- 4gg 4b-	4eeee-'>	.
4r	(>8gggL	.
.	8aaa-	.
4r	8aaan	.
.	8bbb-J)	.
=307	=307	=307
4ggg 4eee- 4gg	4eeee-	.
*	*X8va	*
!	!LO:TX:a:B:t=loco	!
4r	4r	.
4r	4r	.
=308	=308	=308
4ee-\ 4b-\ 4e-\	4ggg 4eee- 4bb- 4gg	fz
4r	4r	.
4r	4r	.
!!LO:CL:ed
*clefF4	*	*
=309	=309	=309
4e- 4B- 4E-	4gg'> 4ee- 4b- 4g	ff
4e- 4B- 4E-	4gg'> 4ee- 4b- 4g	.
4e- 4B- 4E-	4gg'> 4ee- 4b- 4g	.
=310	=310	=310
!LO:TX:b:B:t=FINE.	!	!
!LO:TX:b:t=P:"FINE." na dole strony na środku:problem	!	!
2.EE-;<\	2.E-<;>/	.
==	==	==
*-	*-	*-
!!title: @{OTL}; @{OPS} @{ONM} publisher: @{PPR}
!!!RDF**kern: > = above
!!!RDF**kern: < = below
!!!RDF**kern: N = linked
!!!RDF**dynam: < = "cresc.", fontstyle="bold-italic"
!!!RDF**dynam: > = "dim.", fontstyle="bold-italic"
!!!ENC: Marta Lawrence
!!!END: 2018-08-19
!!!EED: Zofia Trojan
!!!EST: 2018-09-05
!!!EED2: Wojciech Jakubiak-Danek
!!!EST2: 2019-12-22
!!!rism-genre: Waltz
!!!rism-key: E-flat major
!!!rism-opus: op.  18
!!!rism-title: Waltz in E-flat major op.  18
!!!rism-permalink: https://opac.rism.info/search?id=1001014314&View=rism
